gama.ui.shared/icons_svg/dark/gaml/_date.svg

<svg height="18" viewBox="-633.587 -2834.086 24 18" width="24" xmlns="http://www.w3.org/2000/svg"><path d="m-624.0132-2830.6133h-5.8916v.3683c0 .206-.16204.368-.36825.368s-.36825-.162-.36825-.368v-.3683h-1.10466c-.61124 0-1.10468.4933-1.10468 1.1047v1.8411h11.78324v-1.8411c0-.6114-.4934-1.1047-1.10465-1.1047h-1.10465v.3683c0 .206-.16205.368-.36826.368-.20624 0-.36824-.162-.36824-.368zm.7365-.7365h1.10465c1.01631 0 1.84115.8248 1.84115 1.8412v9.5812c0 1.0164-.82484 1.8412-1.84115 1.8412h-9.57391c-1.01634 0-1.84114-.8248-1.84114-1.8412v-9.5812c0-1.0164.8248-1.8412 1.84114-1.8412h1.10466v-.3682c0-.2062.16204-.3682.36825-.3682s.36825.162.36825.3682v.3682h5.8916v-.3682c0-.2062.162-.3682.36824-.3682.20621 0 .36826.162.36826.3682zm2.2093 4.4188h-11.78324v7.0036c0 .6114.49344 1.1047 1.10468 1.1047h9.57391c.61125 0 1.10465-.4933 1.10465-1.1047z" fill="#999"/></svg>

<?xml version="1.0" encoding="UTF-8" standalone="no"?>
<!DOCTYPE svg PUBLIC "-//W3C//DTD SVG 1.1//EN" "http://www.w3.org/Graphics/SVG/1.1/DTD/svg11.dtd">
<svg xmlns:dc="http://purl.org/dc/elements/1.1/" xmlns:xl="http://www.w3.org/1999/xlink" version="1.1" xmlns="http://www.w3.org/2000/svg" viewBox="-633.5871 -2834.0862 24 18" width="24" height="18">
  <defs/>
  <g id="SOURCES" stroke-dasharray="none" stroke="none" stroke-opacity="1" fill="none" fill-opacity="1">
    <title>SOURCES</title>
    <g id="SOURCES_New">
      <title>New</title>
      <g id="Group_10473">
        <g id="Graphic_10129"/>
        <g id="Group_10037">
          <title>calendar</title>
          <g id="Graphic_10038">
            <path d="M -624.0132 -2830.6133 L -629.9048 -2830.6133 L -629.9048 -2830.245 C -629.9048 -2830.039 -630.06684 -2829.877 -630.27305 -2829.877 C -630.47926 -2829.877 -630.6413 -2830.039 -630.6413 -2830.245 L -630.6413 -2830.6133 L -631.74596 -2830.6133 C -632.3572 -2830.6133 -632.85064 -2830.12 -632.85064 -2829.5086 L -632.85064 -2827.6675 L -621.0674 -2827.6675 L -621.0674 -2829.5086 C -621.0674 -2830.12 -621.5608 -2830.6133 -622.17205 -2830.6133 L -623.2767 -2830.6133 L -623.2767 -2830.245 C -623.2767 -2830.039 -623.43875 -2829.877 -623.64496 -2829.877 C -623.8512 -2829.877 -624.0132 -2830.039 -624.0132 -2830.245 Z M -623.2767 -2831.3498 L -622.17205 -2831.3498 C -621.15574 -2831.3498 -620.3309 -2830.525 -620.3309 -2829.5086 L -620.3309 -2819.9274 C -620.3309 -2818.911 -621.15574 -2818.0862 -622.17205 -2818.0862 L -631.74596 -2818.0862 C -632.7623 -2818.0862 -633.5871 -2818.911 -633.5871 -2819.9274 L -633.5871 -2829.5086 C -633.5871 -2830.525 -632.7623 -2831.3498 -631.74596 -2831.3498 L -630.6413 -2831.3498 L -630.6413 -2831.718 C -630.6413 -2831.9242 -630.47926 -2832.0862 -630.27305 -2832.0862 C -630.06684 -2832.0862 -629.9048 -2831.9242 -629.9048 -2831.718 L -629.9048 -2831.3498 L -624.0132 -2831.3498 L -624.0132 -2831.718 C -624.0132 -2831.9242 -623.8512 -2832.0862 -623.64496 -2832.0862 C -623.43875 -2832.0862 -623.2767 -2831.9242 -623.2767 -2831.718 Z M -621.0674 -2826.931 L -632.85064 -2826.931 L -632.85064 -2819.9274 C -632.85064 -2819.316 -632.3572 -2818.8227 -631.74596 -2818.8227 L -622.17205 -2818.8227 C -621.5608 -2818.8227 -621.0674 -2819.316 -621.0674 -2819.9274 Z" fill="#999"/>
          </g>
        </g>
      </g>
    </g>
  </g>
</svg>
